icons/flag-line.svg

<svg viewBox="0 0 24 24" fill="currentColor" xmlns="http://www.w3.org/2000/svg"><path d="M12.382 3C12.7607 3 13.107 3.214 13.2764 3.55279L14 5H20C20.5523 5 21 5.44772 21 6V17C21 17.5523 20.5523 18 20 18H13.618C13.2393 18 12.893 17.786 12.7236 17.4472L12 16H5V22H3V3H12.382ZM11.7639 5H5V14H13.2361L14.2361 16H19V7H12.7639L11.7639 5Z"/></svg>

<svg xmlns="http://www.w3.org/2000/svg" viewBox="0 0 24 24">
    <g>
        <path fill="none" d="M0 0h24v24H0z"/>
        <path d="M5 16v6H3V3h9.382a1 1 0 0 1 .894.553L14 5h6a1 1 0 0 1 1 1v11a1 1 0 0 1-1 1h-6.382a1 1 0 0 1-.894-.553L12 16H5zM5 5v9h8.236l1 2H19V7h-6.236l-1-2H5z"/>
    </g>
</svg>
